common/src/main/resources/icons/actions/projectDirectory.svg

<svg xmlns="http://www.w3.org/2000/svg" width="16" height="16" fill="#4DB6AC" data-big="true" viewBox="0 0 24 24"><path d="M12 19a1 1 0 0 1-1-1 1 1 0 0 1 1-1 1 1 0 0 1 1 1 1 1 0 0 1-1 1M4 5h16v11H4m16 2a2 2 0 0 0 2-2V5a2 2 0 0 0-2-2H4c-1.11 0-2 .89-2 2v11a2 2 0 0 0 2 2H0a2 2 0 0 0 2 2h20a2 2 0 0 0 2-2z"/></svg>

<!--
  - The MIT License (MIT)
  -
  - Copyright (c) 2015-2024 Elior "Mallowigi" Boukhobza
  -
  - Permission is hereby granted, free of charge, to any person obtaining a copy
  - of this software and associated documentation files (the "Software"), to deal
  - in the Software without restriction, including without limitation the rights
  - to use, copy, modify, merge, publish, distribute, sublicense, and/or sell
  - copies of the Software, and to permit persons to whom the Software is
  - furnished to do so, subject to the following conditions:
  -
  - The above copyright notice and this permission notice shall be included in all
  - copies or substantial portions of the Software.
  -
  - THE SOFTWARE IS PROVIDED "AS IS", WITHOUT WARRANTY OF ANY KIND, EXPRESS OR
  - IMPLIED, INCLUDING BUT NOT LIMITED TO THE WARRANTIES OF MERCHANTABILITY,
  - FITNESS FOR A PARTICULAR PURPOSE AND NONINFRINGEMENT. IN NO EVENT SHALL THE
  - AUTHORS OR COPYRIGHT HOLDERS BE LIABLE FOR ANY CLAIM, DAMAGES OR OTHER
  - LIABILITY, WHETHER IN AN ACTION OF CONTRACT, TORT OR OTHERWISE, ARISING FROM,
  - OUT OF OR IN CONNECTION WITH THE SOFTWARE OR THE USE OR OTHER DEALINGS IN THE
  - SOFTWARE.
  -->


<svg data-big="true" xmlns="http://www.w3.org/2000/svg" version="1.1" width="16px" height="16px" fill="#4DB6AC"
     viewBox="0 0 24 24">
  <path
    d="M12,19A1,1 0 0,1 11,18A1,1 0 0,1 12,17A1,1 0 0,1 13,18A1,1 0 0,1 12,19M4,5H20V16H4M20,18A2,2 0 0,0 22,16V5C22,3.89 21.1,3 20,3H4C2.89,3 2,3.89 2,5V16A2,2 0 0,0 4,18H0A2,2 0 0,0 2,20H22A2,2 0 0,0 24,18H20Z"/>
</svg>
